icons/editor-text-input-1-filled.svg

<svg width="24" height="24" viewBox="0 0 24 24" fill="none" xmlns="http://www.w3.org/2000/svg">
<g id="text-input-01">
<path id="Icon" d="M4.80078 4.7998H8.40078" stroke="black" stroke-width="2" stroke-linecap="round" stroke-linejoin="round"/>
<path id="Icon_2" d="M6.60039 8.39981H3.60039C2.93765 8.39981 2.40039 8.93706 2.40039 9.59981V14.3998C2.40039 15.0625 2.93765 15.5998 3.60039 15.5998H6.60039M10.8004 8.39981H20.4004C21.0631 8.39981 21.6004 8.93706 21.6004 9.59981V14.3998C21.6004 15.0625 21.0631 15.5998 20.4004 15.5998H10.8004M6.60039 19.1998V4.7998M4.80039 19.1998H8.40039" stroke="black" stroke-width="2" stroke-linecap="round" stroke-linejoin="round"/>
</g>
</svg>

<svg xmlns="http://www.w3.org/2000/svg" width="24" height="24" fill="none" viewBox="0 0 24 24"><g stroke="currentColor" stroke-linecap="round" stroke-linejoin="round" stroke-width="2"><path d="M4.8 4.8h3.6M6.6 8.4h-3a1.2 1.2 0 0 0-1.2 1.2v4.8a1.2 1.2 0 0 0 1.2 1.2h3m4.2-7.2h9.6a1.2 1.2 0 0 1 1.2 1.2v4.8a1.2 1.2 0 0 1-1.2 1.2h-9.6m-4.2 3.6V4.8M4.8 19.2h3.6"/></g></svg>
